build/dist/assets/images/services/services-1.svg

<svg width="68" height="110" viewBox="0 0 68 110" fill="none" xmlns="http://www.w3.org/2000/svg">
<path d="M43.5833 5H25.375C13.5833 5 4 14.5674 4 26.3394C4 38.1115 13.5833 47.6789 25.375 47.6789V43.5191C15.875 43.5191 8.16667 35.8236 8.16667 26.3394C8.16667 16.8552 15.875 9.15973 25.375 9.15973H43.5833C53.0833 9.15973 60.7917 16.8552 60.7917 26.3394C60.7917 32.5374 57.4167 38.2779 52.0417 41.3145L18.5833 55.7072V60.2413L53.7917 45.0998L54 45.0166C60.7917 41.2313 65 34.0765 65 26.3394C64.9583 14.5674 55.375 5 43.5833 5Z" fill="#00AEDA"/>
<path d="M18.5833 97.9285L50.375 84.243V79.7089L18.5833 93.3944V97.9285Z" fill="#00AEDA"/>
<path d="M50.375 71.7637L18.5833 85.4493V80.9151L50.375 67.2296V71.7637Z" fill="#00AEDA"/>
<path d="M18.5833 72.9701L50.375 59.2846V54.7505L18.5833 68.436V72.9701Z" fill="#00AEDA"/>
<path d="M26.9167 100.84H42.0417V105H26.9167V100.84Z" fill="#00AEDA"/>
</svg>

<svg width="68" height="110" fill="none" xmlns="http://www.w3.org/2000/svg"><path d="M43.583 5H25.375C13.583 5 4 14.567 4 26.34c0 11.771 9.583 21.339 21.375 21.339v-4.16c-9.5 0-17.208-7.695-17.208-17.18 0-9.484 7.708-17.18 17.208-17.18h18.208c9.5 0 17.209 7.696 17.209 17.18 0 6.198-3.375 11.939-8.75 14.976L18.583 55.707v4.534L53.792 45.1l.208-.083c6.792-3.786 11-10.94 11-18.678C64.958 14.567 55.375 5 43.583 5zm-25 92.928l31.792-13.685v-4.534L18.583 93.394v4.534zm31.792-26.164L18.583 85.449v-4.534L50.375 67.23v4.534zM18.583 72.97l31.792-13.685V54.75L18.583 68.436v4.534zm8.334 27.87h15.125V105H26.917v-4.16z" fill="#00AEDA"/></svg>
